X:1
T: Miss Shepherd
C: J. Scott Skinner, arr. Terry Traub 8-29-99
M: 4/4
L: 1/8
R: reel
K: Am
z |\
"Am"A,B,CD E2DC | "G"B,G^FG DB,G,B, |\
"Am"A,B,CD E^GAc | "E"BA^GB "Am"cAA :|
^g |\
"Am"a2ed cBA^F | "G"G2DC B,A,G,^g |\
"Am"a2ed cBAc | "E"BA^GB "Am"cAA |]
^g |\
"Am"a/a/a ed "D"cBA^F | "G"G/G/G DC B,A,G,B, |\
"Am"A,B,CD E^GAc | "E"BA^GB cAA |]
